storage/app/icons/phosphoricons/fill/chair-fill.svg

<svg xmlns="http://www.w3.org/2000/svg" fill="currentColor" viewBox="0 0 256 256"><path d="M208 136h-32v-32h16a16 16 0 0 0 16-16V40a16 16 0 0 0-16-16H64a16 16 0 0 0-16 16v48a16 16 0 0 0 16 16h16v32H48a16 16 0 0 0-16 16v16a16 16 0 0 0 16 16h8v40a8 8 0 0 0 16 0v-40h112v40a8 8 0 0 0 16 0v-40h8a16 16 0 0 0 16-16v-16a16 16 0 0 0-16-16m-48 0H96v-32h64Z"/></svg>

<svg xmlns="http://www.w3.org/2000/svg" viewBox="0 0 256 256" fill="currentColor"><path d="M208,136H176V104h16a16,16,0,0,0,16-16V40a16,16,0,0,0-16-16H64A16,16,0,0,0,48,40V88a16,16,0,0,0,16,16H80v32H48a16,16,0,0,0-16,16v16a16,16,0,0,0,16,16h8v40a8,8,0,0,0,16,0V184H184v40a8,8,0,0,0,16,0V184h8a16,16,0,0,0,16-16V152A16,16,0,0,0,208,136Zm-48,0H96V104h64Z"/></svg>
